!!!COM: Haydn, Franz Joseph
!!!OTL: String Quartet in G major
!!!OPS: Opus 1
!!!ONM: No. 4
!!!OMD: Adagio
!!!OMV: 3
!!!SCT: H III:4
!!!SCA: Thematisch-bibliographisches Werkevererzeichnis (A. van Hoboken)
!!!YOR: Bremner Edition, 1772
!!!ENC: Frances Bennion
!!!CDT: 1732/3/31/-1809/5/31/
!!!CNT: Oesterreich
!!!YEC: Copyright (c) 1994, 2000 Center for Computer Assisted Research in the Humanities
!!!YEM: Rights to all derivative editions reserved.
!!!YEM: Refer to licensing agreement for further details.
!!!YEN: United States of America
**kern	**kern	**kern	**kern
*k[]	*k[]	*k[]	*k[]
*C:	*C:	*C:	*C:
*clefF4	*clefC3	*clefF	*clefF
*M4/4	*M4/4	*M4/4	*M4/4
2..r	2..r	2r	2r
.	.	4.r	4.r
8r	8r	8r	16ccc
.	.	.	16gg
=1	=1	=1	=1
8r	8r	2r	8gg
8c	8ee	.	8gg
8B	8dd	.	8gg
8G	8b	.	16aa
.	.	.	32gg
.	.	.	32ff
8r	8r	2r	4ff
8c	8cc	.	.
8C	8c	.	8ee
8F	8b	.	16ff
.	.	.	32ee
.	.	.	32dd
=2	=2	=2	=2
8E	8cc	2r	16.cc
.	.	.	32ee
8e	4cc	.	16.gg
.	.	.	32ccc
8d	.	.	4ff
8G	8b	.	.
8c	8cc	16.c	4ee
.	.	32e	.
8E	4c	16.g	.
.	.	32cc	.
8D	.	4f	4r
8GG	8B	.	.
=3	=3	=3	=3
4C	4c	4e	8r
.	.	.	8cc
8r	8r	2r	8cc
8E	8g	.	8cc
8F	8g	.	16.b
.	.	.	64cc
.	.	.	64dd
8E	4g	.	8cc
8F	.	16.B	4r
.	.	64c	.
.	.	64d	.
8E	8g	8c	.
=4	=4	=4	=4
8BB	8g	4r	16.dd
.	.	.	64ee
.	.	.	64ff
8C	4g	.	8ee
8BB	.	16.d	4r
.	.	64e	.
.	.	64f	.
8C	8g	8e	.
8r	8r	2r	4gg
8E	8c	.	.
8E	8c	.	24ccc
.	.	.	24bb
.	.	.	24aa
8E	8c	.	24gg
.	.	.	24ff
.	.	.	24ee
=5	=5	=5	=5
8r	8r	2r	24dd
.	.	.	24ee
.	.	.	24ff
8D	8B	.	4ff
8G	8B	.	.
8G	8B	.	16ee
.	.	.	16dd
4C	4c	2r	8ee
.	.	.	8gg
8r	8r	.	32ccc
.	.	.	32gg
.	.	.	32eee
.	.	.	32ccc
8C	8cc	.	16.ggg
.	.	.	64fff
.	.	.	64eee
=6	=6	=6	=6
8G	8cc	4r	8eee
8GG	8b	.	8ddd
8r	8r	32cc	4r
.	.	32g	.
.	.	32ee	.
.	.	32cc	.
8C	8c	16.gg	.
.	.	64ff	.
.	.	64ee	.
8G	8c	8ee	2r
16.GG	16.B	8dd	.
32G	32g	.	.
16.D	16.d	4r	.
32C	32c	.	.
16.BB	16.B	.	.
32AA	32A	.	.
=7	=7	=7	=7
8GG	8G	4r	32gg
.	.	.	32ff#
.	.	.	32gg
.	.	.	32aa
8G	8g	.	8bb
8B	8b	32g	4r
.	.	32f#	.
.	.	32g	.
.	.	32a	.
8G	8g	8b	.
8AA	8A	4r	32ccc
.	.	.	32bb
.	.	.	32aa
.	.	.	32bb
8F#	8f#	.	8aa
8A	8a	32cc	4r
.	.	32b	.
.	.	32a	.
.	.	32b	.
8c	8cc	8a	.
=8	=8	=8	=8
8BB	8B	4r	32ddd
.	.	.	32bb
.	.	.	32ddd
.	.	.	32bb
8G	8g	.	8ddd
8B	8b	32dd	4r
.	.	32b	.
.	.	32dd	.
.	.	32b	.
8BB	8d	8dd	.
8C	8c	4r	16ddd
.	.	.	16ee
8c	8cc	.	8.ee
8A	8a	16cc	.
.	.	16e	32ccc
.	.	.	32bb
8A	8a	8e	32ccc
.	.	.	32bb
.	.	.	32ccc
.	.	.	32bb
=9	=9	=9	=9
8F#	8f#	16d	16ccc
.	.	32a	16dd
.	.	32g#	.
8F#	8f#	32a	8.dd
.	.	32g#	.
.	.	32a	.
.	.	32cc	.
8G	8g	16b	.
.	.	16d	32bb
.	.	.	32aa#
8G	8g	8d	32bb
.	.	.	32aa#
.	.	.	32bb
.	.	.	32aa#
8E	8e	16c	16bb
.	.	32g	16cc
.	.	32f#	.
8E	8e	32g	8.cc
.	.	32f#	.
.	.	32g	.
.	.	32b	.
8F#	8f#	16a	.
.	.	16c	32aa
.	.	.	32gg#
8F#	8f#	16c	32aa
.	.	.	32ff#
.	.	16A	32dd
.	.	.	32cc
=10	=10	=10	=10
4G	4g	8.G	16b
.	.	.	16gg
.	.	.	16ff#
.	.	16g	16ee
2.r	2.r	16f#	16dd
.	.	16e	16cc
.	.	16d	16b
.	.	16c	16a
.	.	16B	16g
.	.	16A	16cc
.	.	16G	16b
.	.	16c	16ee
.	.	16B	16dd
.	.	16e	16gg
.	.	16d	16ff#
.	.	16f#	16ccc
=11	=11	=11	=11
2r	2r	16g	16bb
.	.	16cc	16eee
.	.	16b	16ddd
.	.	16ee	16ggg
.	.	16dd	16ggg
.	.	8bb	8ggg
.	.	16aa	16ggg
16r	16r	8g	[2ggg
16E	16cc	.	.
16D	16b	4.r	.
16c	16ee	.	.
16B	16dd	.	.
16E	16cc	.	.
16D	16b	.	.
16C	16a	.	.
=12	=12	=12	=12
8BB	8g	2r	16ggg]
.	.	.	16ddd
8C	4g	.	32ccc
.	.	.	32bb
.	.	.	32aa
.	.	.	32gg
8D	.	.	4aa
8D	8f#	.	.
8G	8g	2r	32bb
.	.	.	32ddd
.	.	.	32ggg
.	.	.	32ddd
8r	8r	.	32ggg
.	.	.	32ddd
.	.	.	32bb
.	.	.	32gg
8D	8g	.	4aa
8D	8f#	.	.
=13	=13	=13	=13
8G	8g	32b	8gg
.	.	32dd	.
.	.	32gg	.
.	.	32dd	.
8B	8b	32gg	4g
.	.	32dd	.
.	.	32b	.
.	.	32g	.
8d	8dd	4a	.
8D	8d	.	8f#
8G	4g	4g	4g
8D	.	.	.
8GG	8r	8r	8r
8r	8r	8r	16gg
.	.	.	16dd
=14	=14	=14	=14
8r	8r	2r	8dd
8G	8b	.	8dd
8F#	8a	.	8dd
8D	8f#	.	16ee
.	.	.	32dd
.	.	.	32cc
8r	8r	2r	4cc
8G	8g	.	.
8GG	8G	.	8b
8C	8f#	.	16cc
.	.	.	32b
.	.	.	32a
=15	=15	=15	=15
8BB	8g	2r	24g
.	.	.	24b
.	.	.	24dd
8GG	4g	.	24gg
.	.	.	24bb
.	.	.	24ddd
8AA	.	.	8ddd
8D	8f#	.	8ccc
8GG	8g	24G	4bb
.	.	24B	.
.	.	24d	.
8G	4g	24g	.
.	.	24b	.
.	.	24dd	.
8A	.	8dd	4r
8D	8f#	8cc	.
=16	=16	=16	=16
4G	8g	4b	8r
.	4b	.	4gg
4F	.	4r	.
.	8b	.	16gg
.	.	.	32ff
.	.	.	32ee
8E	8cc	2r	4cc
8E	8cc	.	.
8E	8cc	.	24bb-
.	.	.	24aa
.	.	.	24gg
8E	8cc	.	24ddd
.	.	.	24ccc
.	.	.	24bb-
=17	=17	=17	=17
8F	4f	4r	[2ccc
8r	.	.	.
8E	2r	32g	.
.	.	32f	.
.	.	32g	.
.	.	32a	.
8G	.	8b-	.
8F	.	32a	2ccc_
.	.	32g	.
.	.	32a	.
.	.	32b-	.
8A	.	8cc	.
8c	32g	32e	.
.	32f	32d	.
.	32g	32e	.
.	32a	32f	.
8C	8b-	8g	.
=18	=18	=18	=18
8F	32a	32f	2ccc]
.	32g	32e	.
.	32a	32f	.
.	32b-	32g	.
8FF	8cc	8a	.
8r	32e	32g	.
.	32d	32f	.
.	32e	32g	.
.	32f	32a	.
8C	8g	8b-	.
8F	8f	8a	24ccc
.	.	.	24fff
.	.	.	24eee
8B-	4f	4.r	24ddd
.	.	.	24ccc
.	.	.	24bb-
8c	.	.	8aa
8C	8e	.	8gg
=19	=19	=19	=19
8F	8f	24cc	4ff
.	.	24ff	.
.	.	24ee	.
8B-	4F	24dd	.
.	.	24cc	.
.	.	24b-	.
8c	.	8a	4r
8C	8E	8g	.
8F	4F	4f	2r
8C	.	.	.
4FF	4r	4r	.
=20	=20	=20	=20
4r	8r	4r	32aa
.	.	.	32gg
.	.	.	32aa
.	.	.	32bb-
.	32cc	.	8ccc
.	32b-	.	.
.	32a	.	.
.	32g	.	.
32c	4f#	32a	4r
32B-	.	32g	.
32A	.	32a	.
32G	.	32b-	.
8F#	.	8cc	.
4r	8r	4r	32aa
.	.	.	32gg
.	.	.	32aa
.	.	.	32bb-
.	32a	.	8ccc
.	32g	.	.
.	32f#	.	.
.	32e	.	.
32A	4d	32f#	4r
32G	.	32g	.
32F#	.	32a	.
32E	.	32b-	.
8D	.	8cc	.
=21	=21	=21	=21
8r	16a	2r	16ccc
.	16cc	.	16ee-
8F#	4cc	.	4ee-
8F#	.	.	.
8F#	16b-	.	16dd
.	16a	.	16cc
8G	4.g	2r	32b-
.	.	.	32a
.	.	.	32b-
.	.	.	32cc
8BB-	.	.	16.dd
.	.	.	32g
8C	.	.	8.a
8D	8f#	.	.
.	.	.	32b-
.	.	.	32cc
=22	=22	=22	=22
4G	4g	2r	32b-
.	.	.	32a
.	.	.	32g
.	.	.	32a
.	.	.	8g
4..r	4..r	.	4gg 4G 4b- 4d
.	.	4G 4b- 4d 4gg	2r
16E-	16e-	.	.
16.D	16.d	4r	.
32C	32c	.	.
16.BB-	16.B-	.	.
32AA	32A	.	.
=23	=23	=23	=23
4GG	4G	4r	32gg
.	.	.	32ff#
.	.	.	32gg
.	.	.	32aa
.	.	.	8bb-
32B-	32b-	32g	4r
32A	32a	32f#	.
32G	32g	32g	.
32F	32f	32a	.
8E	8e	8b-	.
4r	4r	4r	32gg
.	.	.	32ff#
.	.	.	32gg
.	.	.	32aa
.	.	.	8bb-
32G	32g	32e	4r
32F	32f	32f	.
32E	32e	32g	.
32D	32d	32a	.
8C	8c	8b-	.
=24	=24	=24	=24
8r	16g	2r	16bb-
.	16b-	.	16dd
8E	4b-	.	4dd
8E	.	.	.
8E	16a	.	16cc
.	16g	.	16b-
8F	4.f	2r	32a
.	.	.	32g
.	.	.	32a
.	.	.	32b-
8AA	.	.	16.cc
.	.	.	32f
8BB-	.	.	8.g
8C	8e	.	.
.	.	.	32a
.	.	.	32b-
=25	=25	=25	=25
8F	4f	2r	32a
.	.	.	32g
.	.	.	32f
.	.	.	32g
8FF	.	.	8f
4..r	4..r	.	4aa 4f 4cc
.	.	4cc 4aa 4f	2r
16D	16d	.	.
16.C	16.c	4r	.
32BB-	32B-	.	.
16.AA	16.A	.	.
32GG	32G	.	.
=26	=26	=26	=26
8FF	8F	2r	8aa
8F	8cc	.	4aa
8F	8cc	.	.
8F	8dd	.	16aa
.	.	.	16ccc
8E	8g	2r	16ccc
.	.	.	16gg
8E	8cc	.	4gg
8E	8cc	.	.
8E	8cc	.	32ff
.	.	.	32ee
.	.	.	32dd
.	.	.	32cc
=27	=27	=27	=27
8D	8cc	2r	8ff
8D	8cc	.	4ff
8G	8b	.	.
8G	8b	.	24aa
.	.	.	24gg
.	.	.	24ff
4C	4cc	2r	24ee
.	.	.	24ff
.	.	.	24ee
.	.	.	24gg
.	.	.	24aa
.	.	.	24gg
8r	8r	.	24ccc
.	.	.	24bb
.	.	.	24aa
8C	8cc	.	24gg
.	.	.	24ff
.	.	.	24ee
=28	=28	=28	=28
8G	8cc	4r	8ee
8GG	8b	.	8dd
8r	8r	24cc	4r
.	.	24b	.
.	.	24a	.
8C	8c	24g	.
.	.	24f	.
.	.	24e	.
8G	8c	8e	4.r
8GG	8B	8d	.
4r	4r	4r	.
.	.	.	16ccc
.	.	.	16gg
=29	=29	=29	=29
4C	4e	4.r	8gg
.	.	.	4gg
4r	4r	.	.
.	.	16ccc	16aa
.	.	16gg	32gg
.	.	.	32ff
4C	4c	8gg	8ee
.	.	8gg	4ee
4r	4r	8gg	.
.	.	16aa	16ff
.	.	32gg	32ee
.	.	32ff	32dd
=30	=30	=30	=30
4C	4c	8ee	8cc
.	.	8ee	4cc
4r	4r	8ee	.
.	.	16ff	16aa
.	.	32ee	32gg
.	.	32dd	32ff
4C	4g	8cc	8ee
.	.	8cc	4ee
8r	8r	8cc	.
8G	8g	16dd	16ff
.	.	32cc	32ee
.	.	32b	32dd
=31	=31	=31	=31
8E	8cc	4cc	16.cc
.	.	.	32ee
8e	4cc	.	16.gg
.	.	.	32ccc
8d	.	4r	4ff
8G	8b	.	.
8c	8cc	16.c	4ee
.	.	32e	.
8E	4c	16.g	.
.	.	32cc	.
8D	.	4f	4r
8GG	8B	.	.
=32	=32	=32	=32
4C	4c	4e	8r
.	.	.	8cc
8r	8r	2r	8cc
8E	8g	.	8cc
8F	8g	.	16.b
.	.	.	64cc
.	.	.	64dd
8E	4g	.	8cc
8F	.	16.B	4r
.	.	64c	.
.	.	64d	.
8E	8g	8c	.
=33	=33	=33	=33
8BB	8g	4r	16.dd
.	.	.	64ee
.	.	.	64ff
8C	4g	.	8ee
8BB	.	16.d	4r
.	.	64e	.
.	.	64f	.
8C	8g	8e	.
8r	8r	2r	4gg
8E	8c	.	.
8E	8c	.	24ccc
.	.	.	24bb
.	.	.	24aa
8E	8c	.	24gg
.	.	.	24ff
.	.	.	24ee
=34	=34	=34	=34
8r	8r	2r	24dd
.	.	.	24ee
.	.	.	24ff
8D	8c	.	4ff
8G	8B	.	.
8G	8B	.	16ee
.	.	.	16dd
4C	4c	2r	8ee
.	.	.	8gg
8r	8r	.	32ccc
.	.	.	32gg
.	.	.	32eee
.	.	.	32ccc
8C	8cc	.	16.ggg
.	.	.	64fff
.	.	.	64eee
=35	=35	=35	=35
8G	8cc	4r	8eee
8GG	8b	.	8ddd
8r	8r	32cc	4r
.	.	32g	.
.	.	32ee	.
.	.	32cc	.
8C	8c	16.gg	.
.	.	64ff	.
.	.	64ee	.
8G	8c	8ee	2r
16.GG	16.B	8dd	.
32A	32a	.	.
16.G	16.g	4r	.
32F	32f	.	.
16.E	16.e	.	.
32D	32d	.	.
=36	=36	=36	=36
8C	8c	4r	32cc
.	.	.	32b
.	.	.	32cc
.	.	.	32dd
8c	8cc	.	8ee
8e	8ee	32c	4r
.	.	32B	.
.	.	32c	.
.	.	32d	.
8c	8cc	8e	.
8D	8d	4r	32ff
.	.	.	32ee
.	.	.	32dd
.	.	.	32ee
8B	8b	.	8dd
8d	8dd	32f	4r
.	.	32e	.
.	.	32d	.
.	.	32e	.
8F	8f	8d	.
=37	=37	=37	=37
8E	8e	4r	32gg
.	.	.	32ee
.	.	.	32gg
.	.	.	32ee
8c	8cc	.	8gg
8e	8ee	32g	4r
.	.	32e	.
.	.	32g	.
.	.	32e	.
8E	8e	8g	.
8F	8f	4r	16gg
.	.	.	16a
8F	8f	.	8.a
8D	8d	16ff	.
.	.	16a	32ff
.	.	.	32ee
8d	8dd	8a	32ff
.	.	.	32ee
.	.	.	32ff
.	.	.	32ee
=38	=38	=38	=38
8B	8b	16g	16ff
.	.	32dd	16g
.	.	32cc#	.
8B	8b	32dd	8.g
.	.	32cc#	.
.	.	32dd	.
.	.	32ff	.
8c	8cc	16ee	.
.	.	16g	32ee
.	.	.	32dd#
8c	8cc	8g	32ee
.	.	.	32dd#
.	.	.	32ee
.	.	.	32dd#
8A	8a	16f	16ee
.	.	32cc	16f
.	.	32b	.
8A	8a	32cc	8.f
.	.	32b	.
.	.	32cc	.
.	.	32ee	.
8B	8b	16dd	.
.	.	16f	32dd
.	.	.	32cc#
8B	8b	16f	32dd
.	.	.	32b
.	.	16d	32g
.	.	.	32f
=39	=39	=39	=39
4c	4cc	8.c	16e
.	.	.	16cc
.	.	.	16b
.	.	16cc	16a
2.r	2.r	16b	16g
.	.	16a	16f
.	.	16g	16e
.	.	16f	16d
.	.	16e	16c
.	.	16d	16f
.	.	16c	16e
.	.	16f	16a
.	.	16e	16g
.	.	16a	16cc
.	.	16g	16b
.	.	16b	16ff
=40	=40	=40	=40
2r	2r	16cc	16ee
.	.	16ff	16aa
.	.	16ee	16gg
.	.	16aa	16ccc
.	.	16gg	16ccc
.	.	8ee	8ccc
.	.	16ee	16ccc
16r	16r	8c	[2ccc
16F	16a	.	.
16E	16g	4.r	.
16A	16f	.	.
16G	16e	.	.
16F	16a	.	.
16E	16g	.	.
16D	16f	.	.
=41	=41	=41	=41
8E	8e	2r	16ccc]
.	.	.	16gg
8F	4cc	.	32ff
.	.	.	32ee
.	.	.	32dd
.	.	.	32cc
8G	.	.	4dd
8GG	8b	.	.
8C	8cc	2r	32ee
.	.	.	32gg
.	.	.	32ccc
.	.	.	32gg
8r	8r	.	32ccc
.	.	.	32gg
.	.	.	32ee
.	.	.	32cc
8G	8cc	.	4dd
8GG	8b	.	.
=42	=42	=42	=42
8C	8cc	32e	8cc
.	.	32g	.
.	.	32cc	.
.	.	32g	.
8E	8c	32cc	4cc
.	.	32g	.
.	.	32e	.
.	.	32c	.
8G	8g	4d	.
8GG	8G	.	8G 8d 8b
8C	8c	4c	4e 4G 4cc
8GG	8G	.	.
8CC	8C	8r	8r
8r	8r	8r	8r
==	==	==	==
*-	*-	*-	*-
!!!RWG1: This file contains only pitch and duration data.
!!!RWG2: Transposing instruments are not transposed.
!!!RWG3: Spines may have incompatible meters.
!!!RWG4: Durations of rests and tied notes may be interpreted.
!!!RWG: Key is interpreted using the Humdrum key tool.
!!!GTL: 10 Divertimentos
!!!AFT: stage1
!!!END: 1997/04/15
!!!KEY: 2277479465
!!!EMD: Converted from MuseData to Humdrum Dec 16, 2000, by Andreas Kornstaedt using muse2kern.
!!!EMD: Manual editing by Craig Sapp, Nov 2001
